src/images/footer/insta_desc.svg

<svg width="33" height="32" viewBox="0 0 33 32" fill="none" xmlns="http://www.w3.org/2000/svg">
<path d="M17.8385 0.00196857C19.0068 -0.00251164 20.1751 0.00922255 21.3431 0.0371675L21.6537 0.0483671C22.0123 0.0611666 22.3661 0.077166 22.7936 0.0963654C24.497 0.176363 25.6594 0.445154 26.6792 0.84034C27.7359 1.24673 28.626 1.79711 29.5162 2.68668C30.3301 3.48602 30.96 4.45293 31.3622 5.52018C31.7576 6.53935 32.0266 7.70251 32.1066 9.40485C32.1258 9.83043 32.1418 10.1856 32.1547 10.544L32.1643 10.8544C32.1927 12.0211 32.205 13.1881 32.2011 14.3551L32.2027 15.5486V17.6446C32.2066 18.8121 32.1944 19.9796 32.1659 21.1468L32.1563 21.4572C32.1434 21.8156 32.1274 22.1692 32.1082 22.5964C32.0282 24.2987 31.756 25.4603 31.3622 26.4795C30.9613 27.5478 30.3313 28.5156 29.5162 29.3146C28.7156 30.1279 27.7476 30.7573 26.6792 31.1593C25.6594 31.5545 24.497 31.8233 22.7936 31.9033C22.3661 31.9225 22.0123 31.9385 21.6537 31.9513L21.3431 31.9609C20.1751 31.9893 19.0068 32.0016 17.8385 31.9977L16.6441 31.9993H14.5484C13.3801 32.0032 12.2118 31.991 11.0438 31.9625L10.7332 31.9529C10.3531 31.9391 9.97315 31.9231 9.59328 31.9049C7.88981 31.8249 6.72748 31.5529 5.70603 31.1593C4.63766 30.7583 3.66994 30.1287 2.87065 29.3146C2.05581 28.5151 1.4253 27.5475 1.02309 26.4795C0.627644 25.4603 0.358675 24.2987 0.278625 22.5964C0.260794 22.2168 0.244784 21.837 0.230595 21.4572L0.22259 21.1468C0.193073 19.9797 0.17973 18.8121 0.182564 17.6446V14.3551C0.178096 13.1881 0.189838 12.0211 0.217787 10.8544L0.228994 10.544C0.241802 10.1856 0.257812 9.83043 0.277024 9.40485C0.357074 7.70091 0.626043 6.54095 1.02149 5.52018C1.42394 4.45241 2.05568 3.48576 2.87225 2.68828C3.67099 1.87351 4.6381 1.24284 5.70603 0.84034C6.72748 0.445154 7.88821 0.176363 9.59328 0.0963654L10.7332 0.0483671L11.0438 0.0403675C12.2112 0.010885 13.379 -0.00244928 14.5468 0.000368736L17.8385 0.00196857ZM16.1926 8.0017C15.132 7.9867 14.0789 8.18253 13.0946 8.57778C12.1104 8.97304 11.2145 9.55985 10.4592 10.3041C9.70382 11.0484 9.10401 11.9352 8.69461 12.9131C8.28521 13.8911 8.07439 14.9406 8.07439 16.0006C8.07439 17.0607 8.28521 18.1102 8.69461 19.0881C9.10401 20.066 9.70382 20.9529 10.4592 21.6971C11.2145 22.4414 12.1104 23.0282 13.0946 23.4235C14.0789 23.8187 15.132 24.0145 16.1926 23.9996C18.3157 23.9996 20.3518 23.1567 21.853 21.6565C23.3543 20.1562 24.1977 18.1215 24.1977 15.9998C24.1977 13.8782 23.3543 11.8434 21.853 10.3432C20.3518 8.84292 18.3157 8.0017 16.1926 8.0017ZM16.1926 11.2016C16.8306 11.1898 17.4646 11.3053 18.0575 11.5411C18.6503 11.777 19.1902 12.1285 19.6456 12.5752C20.101 13.0219 20.4628 13.5548 20.7098 14.1428C20.9568 14.7308 21.084 15.3621 21.0841 15.9998C21.0842 16.6375 20.9572 17.2688 20.7104 17.8569C20.4636 18.445 20.102 18.978 19.6468 19.4249C19.1915 19.8717 18.6518 20.2235 18.059 20.4595C17.4662 20.6956 16.8322 20.8112 16.1942 20.7997C14.9204 20.7997 13.6987 20.294 12.798 19.3938C11.8972 18.4937 11.3912 17.2728 11.3912 15.9998C11.3912 14.7268 11.8972 13.506 12.798 12.6058C13.6987 11.7057 14.9204 11.2 16.1942 11.2L16.1926 11.2016ZM24.5979 5.60178C24.0814 5.62244 23.5929 5.84201 23.2348 6.21451C22.8767 6.58701 22.6767 7.08354 22.6767 7.60011C22.6767 8.11668 22.8767 8.61321 23.2348 8.98571C23.5929 9.35821 24.0814 9.57778 24.5979 9.59844C25.1287 9.59844 25.6377 9.38774 26.013 9.01268C26.3883 8.63762 26.5992 8.12893 26.5992 7.59851C26.5992 7.0681 26.3883 6.5594 26.013 6.18434C25.6377 5.80929 25.1287 5.59858 24.5979 5.59858V5.60178Z" fill="#3A4551"/>
</svg>

<svg width="33" height="32" fill="none" xmlns="http://www.w3.org/2000/svg"><path d="M17.838.002c1.169-.005 2.337.007 3.505.035l.31.011c.36.013.713.03 1.14.048 1.704.08 2.866.35 3.886.744a7.79 7.79 0 0 1 2.837 1.847 7.853 7.853 0 0 1 1.846 2.833c.396 1.02.665 2.183.745 3.885.019.425.035.78.048 1.139l.01.31c.028 1.167.04 2.334.036 3.501l.002 1.194v2.096c.004 1.167-.009 2.335-.037 3.502l-.01.31c-.013.359-.029.712-.048 1.14-.08 1.702-.352 2.863-.746 3.883a7.815 7.815 0 0 1-1.846 2.835 7.87 7.87 0 0 1-2.837 1.844c-1.02.396-2.182.664-3.885.744-.428.02-.782.036-1.14.048l-.31.01c-1.169.028-2.337.04-3.506.037l-1.194.001h-2.096c-1.168.004-2.336-.008-3.504-.037l-.31-.01c-.38-.013-.76-.029-1.14-.047-1.704-.08-2.867-.352-3.888-.746a7.829 7.829 0 0 1-2.835-1.844 7.846 7.846 0 0 1-1.848-2.835C.628 25.46.36 24.299.28 22.596c-.018-.38-.034-.759-.048-1.139l-.008-.31c-.03-1.167-.043-2.335-.04-3.502v-3.29c-.005-1.167.007-2.334.035-3.5l.011-.311c.013-.358.029-.714.048-1.14.08-1.703.349-2.863.744-3.884a7.807 7.807 0 0 1 1.851-2.832A7.84 7.84 0 0 1 5.706.84C6.727.445 7.888.176 9.593.096l1.14-.048.31-.008C12.212.01 13.38-.002 14.548 0l3.291.002Zm-1.645 8a8.01 8.01 0 0 0-7.498 4.911 7.996 7.996 0 0 0 4.4 10.51 8.013 8.013 0 0 0 3.098.577c2.123 0 4.159-.843 5.66-2.343a7.997 7.997 0 0 0-5.66-13.655Zm0 3.2a4.806 4.806 0 0 1 4.517 2.94 4.797 4.797 0 0 1-2.651 6.317 4.806 4.806 0 0 1-1.865.34 4.804 4.804 0 0 1-4.803-4.8 4.798 4.798 0 0 1 4.803-4.799l-.001.002Zm8.405-5.6A2.002 2.002 0 0 0 22.677 7.6a2 2 0 0 0 1.92 1.998 2.002 2.002 0 0 0 2.002-2 2 2 0 0 0-2.001-2v.004Z" fill="#3A4551"/></svg>
